!!!OTL: HEINRICH SCHLIEF BEI SEINER NEUVERMAEHLTEN
!!!ARE: Europa, Mitteleuropa, Deutschland, Ober - Hessen
!!!SCT: B0138A
!!!YEM: Copyright 1995, estate of Helmut Schaffrath.
**kern
*ICvox
*Ivox
*M4/4
*k[f#]
*G:
{8d
8d
=1
4.g
8g
8g
8b
8dd
8b
=2
8b
8a
4a
4r}
{8f#
8g
=3
4.a
8b
8cc
8a
8f#
8d
=4
2b
4r}
{8g
8g
=5
4.ee
8dd
8cc
8b
8a
8g
=6
8f#
8a
4dd
4r}
{8a
8cc
=7
4b
8dd
8ee
8dd
8cc
8b
8a
=8
4b
4a
4g}
==
!!!AGN: Ballade, Romanze
!!!ONB: ESAC (Essen Associative Code) Database: BOEHME
!!!AMT: simple quadruple
!!!AIN: vox
!!!EED: Helmut Schaffrath
!!!EEV: 1.0
*-
